X:197
T:Bohemia First Scot Sett No.2. Le4.197
M:2/4
L:1/8
Q:2/4=50
B:L.Leadley MS#4 c1850
Z:Village Music Project 2016 Steve Mansfield
K:A
[Ae]2 [Ac]2 | {c}B/A/B/c/ AA | BB cc/e/ | e/a/c/e/ A/c/E/A/ |
[Ae]2 [Ac]2 | {c}B/A/B/c/ AA & GG AA | BB cc/e/ & GG AA | e/d/c/B/ A ||
|: e | e (3f/g/a/ cc | d>e/f// BB | dcBA | e/f/e/^d/ ee |
e (3f/g/a/ cc | d>e/f// BB | d/c/B/A/ G/A/B/c/ | B2A !D.C.! :|]

